!!!COM: Mozart, Wolfgang Amadeus
!!!OPR: Divertimento in F Major
!!!OTL:
!!!OMV: 1
!!!SCT: K 138
!!!SCA: Chronologisch-thematisches Verzeichnis sämtlicher Tonwerke Wolfgang Amade Mozarts (L. von Köchel; 1862, 2/1905, 3/1937, 1947)
!!!YOR: Breitkopf & Härtel Edition
!!!EED: Frances Bennion
!!!ENC: Frances Bennion
!!!CDT: 1756/1/27/-1791/12/5/
!!!OCY: Österreich
!!!YEC: Copyright (c) 1994, 2000 Center for Computer Assisted Research in the Humanities
!!!YEM: Rights to all derivative editions reserved.
!!!YEM: Refer to licensing agreement for further details.
!!!YEN: United States of America
**kern	**kern	**kern	**kern
*k[b-]	*k[b-]	*k[b-]	*k[b-]
*F:	*F:	*F:	*F:
*clefG	*clefG	*clefF	*clefC
*M4/4	*M4/4	*M4/4	*M4/4
*tb16	*tb16	*tb16	*tb16
=1	=1	=1	=1
4ff	4f	4f	4F
4aa	4a	4a	4A
4ccc	4cc	4cc	4c
4r	4r	4r	4r
=2	=2	=2	=2
8.cc	4g	4e	1r
16dd	.	.	.
8.b-	4f	4d	.
16cc	.	.	.
4a	4e	4c	.
4r	4r	4r	.
=3	=3	=3	=3
4b-	4B-	4B-	4BB-
4dd	4d	4d	4D
4ff	4f	4f	4F
4r	4r	4r	4r
=4	=4	=4	=4
8.a	4e	4c	1r
16b-	.	.	.
8.g	4d	4B-	.
16a	.	.	.
4f	4c	4A	.
8r	4r	4r	.
8cc	.	.	.
=5	=5	=5	=5
2aa	8r	8f	8F
.	16cc	8f	8F
.	16b	.	.
.	8cc	8f	8F
.	8cc	8f	8F
4.gg	8r	8e	8E
.	16cc	8e	8E
.	16b	.	.
.	8cc	8e	8E
8aa	8cc	8e	8E
=6	=6	=6	=6
2gg	8r	8d	8D
.	8a	8d	8D
.	8b	8d	8D
.	8cc#	8d	8D
4ff	16dd	8d	8D
.	16ee	.	.
.	16ff	8d	8D
.	16ee	.	.
8r	8dd	8d	8D
8ff	8a	8d	8D
=7	=7	=7	=7
2ddd	8r	8b-	8B-
.	16ff	8b-	8B-
.	16ee	.	.
.	8ff	8b-	8B-
.	8ff	8b-	8B-
4.ccc	8r	8a	8A
.	16ff	8a	8A
.	16ee	.	.
.	8ff	8a	8A
8ddd	[8ff	8a	8A
=8	=8	=8	=8
2ccc	8ff]	8g	8G
.	8dd	8g	8G
.	8ee	8g	8G
.	8ff	8g	8G
4bb-	16gg	8g	8G
.	16aa	.	.
.	16bb-	8g	8G
.	16aa	.	.
8r	8gg	8g	8G
8dd	8b-	8g	8G
=9	=9	=9	=9
4.bb-	8g	8r	8E
.	16cc	8c	8E
.	16ee	.	.
.	8gg	8e	8E
8cc	8gg	8g	8E
8bb-	4gg	4cc	8E
16aa	.	.	8E
16gg	.	.	.
8bb-	4r	4r	8E
16aa	.	.	8E
16gg	.	.	.
=10	=10	=10	=10
4.aa	8f	8r	8F
.	16a	8c	8F
.	16cc	.	.
.	8ff	8f	8F
8cc	8ff	8a	8F
8aa	4ff	8f	8D
16gg	.	8f	8D
16ff	.	.	.
8ff	4r	8f	8D
16ee	.	8f	8D
16dd	.	.	.
=11	=11	=11	=11
8dd	8f	8B-	8BB-
16cc	16e	4f	8BB-
16b-	16d	.	.
8b-	8d	.	8BB-
16a	16c	8d	8BB-
16g	16B-	.	.
4f	4A	8c	8C
.	.	8c	8C
4e	4G	8c	8C
.	.	8c	8C
=12	=12	=12	=12
4f	8A	8c	8F
.	8f	8A	8F
2r	8g	8B-	8E
.	8f	8A	8F
.	8e	8B-	8G
.	8f	8A	8F
8r	8dd	8b-	8E
8cc	8cc	8a	8F
=13	=13	=13	=13
4.bb-	8g	8r	8E
.	16cc	8c	8E
.	16ee	.	.
.	8gg	8e	8E
8cc	8gg	8g	8E
8bb-	4gg	4cc	8E
16aa	.	.	8E
16gg	.	.	.
8bb-	4r	4c	8E
16aa	.	.	8E
16gg	.	.	.
=14	=14	=14	=14
4.aa	8f	8r	8F
.	16a	8c	8F
.	16cc	.	.
.	8ff	8f	8F
8cc	8ff	8a	8F
8aa	4ff	8f	8D
16gg	.	8f	8D
16ff	.	.	.
8ff	4r	8f	8D
16ee	.	8f	8D
16dd	.	.	.
=15	=15	=15	=15
8dd	8f	8B-	8BB-
16cc	16e	4f	8BB-
16b-	16d	.	.
8b-	8d	.	8BB-
16a	16c	8d	8BB-
16g	16B-	.	.
4f	4A	8c	8C
.	.	8c	8C
4e	4G	8c	8C
.	.	8c	8C
=16	=16	=16	=16
4f	8A	8c	8F
.	16A	8c	8F
.	16c	.	.
4aa	8f	8c	8F
.	16c	16A	8F
.	16f	16c	.
4.d	8a	8f	8F
.	16f	16d	8F
.	16a	16f	.
.	8dd	4a	8F
8aa	16ff	.	8F
.	16dd	.	.
=17	=17	=17	=17
4c#	4gg	4a	8E
.	.	.	8E
4.gg	4B-	4d	8D
.	.	.	8D
.	8A	4e	8C#
8ee	8cc#	.	8C#
8gg	8ee	8r	8AA
16ff	16dd	8a	8AA
16ee	16cc#	.	.
=18	=18	=18	=18
4ff	8dd	4a	8D
.	16ff	.	8D
.	16dd	.	.
4aa	8b	4f	8D
.	16a	.	8D
.	16b	.	.
4.c	8cc	4e	8C
.	16g	.	8C
.	16cc	.	.
.	8ee	4c	8C
8gg	16cc	.	8C
.	16ee	.	.
=19	=19	=19	=19
4B	8ff	8G	8D
.	8ee	4g	8C
4.ff	8dd	.	8BB
.	8cc	8g	8AA
.	8b	8g	8GG
8dd	8b	8G	8GG
8ff	8dd	8g	8GG
16ee	16cc	8f	8GG
16dd	16b	.	.
=20	=20	=20	=20
4cc	8cc	4e	8C
.	16g	.	8C
.	16cc	.	.
4ccc	16ee	16g	8C
.	16ff	16a	.
.	16ee	16g	8C
.	16dd	16f	.
4.ee-	8cc	4.g	8C
.	16g	.	8C
.	16cc	.	.
.	16ee-	.	8C
.	16ff	.	.
8ccc	16ee-	8g	8C
.	16dd	.	.
=21	=21	=21	=21
4A	4cc	4e-	8F#
.	.	.	8F#
2ee-	2cc	2a	8F#
.	.	.	8F#
.	.	.	8F#
.	.	.	8F#
16dd	4a	4d	8F#
16cc	.	.	.
16b	.	.	8F#
16cc	.	.	.
=22	=22	=22	=22
4b	4d	4d	4G
8r	2.r	2.r	2.r
8gg	.	.	.
8g	.	.	.
8a	.	.	.
8a	.	.	.
8b	.	.	.
=23	=23	=23	=23
16b	4.r	1r	1r
16cc	.	.	.
16b	.	.	.
16a	.	.	.
8g	.	.	.
8gg	8gg	.	.
8b	8g	.	.
8cc	8a	.	.
8cc	8a	.	.
8dd	8b	.	.
=24	=24	=24	=24
16dd	16b	1r	1r
16ee	16cc	.	.
16dd	16b	.	.
16cc	16a	.	.
8b	8g	.	.
8gg	8dd	.	.
8dd	8b	.	.
8ee	8cc	.	.
8ee	8cc	.	.
8ff	8dd	.	.
=25	=25	=25	=25
16ff	16dd	8G	8G
16ff	16dd	.	.
16ff	16dd	8G	8G
16ff	16dd	.	.
16gg	16ee	8G	8G
16gg	16ee	.	.
16gg	16ee	8G	8G
16gg	16ee	.	.
16aa	16ff	8G	8G
16aa	16ff	.	.
16aa	16ff	8G	8G
16aa	16ff	.	.
16bb	16dd	8G	8G
16bb	16dd	.	.
16bb	16dd	8G	8G
16bb	16dd	.	.
=26	=26	=26	=26
4ccc	4ee	4G	4C
2gg	4r	4r	4r
.	8cc	8g	8E
.	8cc	8g	8E
8ff	8cc	8g	8E
8ee	8cc	8g	8E
=27	=27	=27	=27
8ee	8cc	8a	8F
8dd	8cc	8a	8F
2dd	8cc	8a	8F
.	8cc	8a	8F
.	8cc	8a	8F
.	8cc	8a	8F
4ee	8cc	8g	8G
.	8cc	8g	8G
=28	=28	=28	=28
8ee	8cc	8f	8A
8ff	8cc	8f	8A
2ff	8cc	8f	8A
.	8cc	8f	8A
.	8cc	8f	8A
.	8cc	8f	8A
4gg	8cc	8e	8G
.	8cc	8e	8G
=29	=29	=29	=29
4.aa	4.cc	4.a	8F
.	.	.	8F
.	.	.	8F
8bb	8dd	8g	8F
8ccc	8cc	4g	8E
8gg	8ee	.	8E
8ff	8dd	4a	8A
8ee	8cc	.	8A
=30	=30	=30	=30
4.dd	2.cc	8a	8F
.	.	8a	8F
.	.	8a	8F
16ee	.	8a	8F
16ff	.	.	.
4ee	.	8g	8G
.	.	8g	8G
4dd	4b	8g	8G
.	.	8g	8G
=31	=31	=31	=31
4cc	4cc	4g	4C
8r	8r	8r	2.r
8gg	8ee	8g	.
8ccc	8aa	8cc	.
8bb	8gg	8b	.
8aa	8ff	8a	.
8gg	8ee	8g	.
=32	=32	=32	=32
8ff	8dd	8f	4r
8ee	8cc	8e	.
8r	8r	8r	4A
8ee	8cc	8e	.
8gg	8ee	8g	4F
8ff	8dd	8f	.
8ee	8cc	8e	4G
8dd	8b	8d	.
=33	=33	=33	=33
4ee	4cc	4e	4C
8r	8r	8r	2.r
8gg	8ee	8g	.
8ccc	8aa	8cc	.
8bb	8gg	8b	.
8aa	8ff	8a	.
8gg	8ee	8g	.
=34	=34	=34	=34
8ff	8dd	8f	4r
8ee	8cc	8e	.
8r	8r	8r	4A
8ee	8cc	8e	.
8gg	8ee	8g	4F
8ff	8dd	8f	.
8ee	8cc	8e	4G
8dd	8b	8d	.
=35	=35	=35	=35
4cc	4cc	4c	4C
4ccc 4ee	4ee 4cc	4g	4C
4ccc 4ee	4ee 4cc 4g	4e 4c	4C
4r	4r	4r	4r
=36	=36	=36	=36
2gg	8e	8c	8C
.	8e	8c	8C
.	8e	8c	8C
.	8e	8c	8C
4.gg	8e	8c	8C
.	8e	8c	8C
.	8e	8c	8C
8aa	8e	8c	8C
=37	=37	=37	=37
4gg	8B	8G	8D
.	8B	8G	8D
8.ff	8B	8G	8D
.	8B	8G	8D
16gg	.	.	.
4ff	8c	8G	8E
.	8c	8G	8E
8.ee	8c	8G	8E
.	8c	8G	8E
16ff	.	.	.
=38	=38	=38	=38
8ee	8a	8c	8F
8dd	8a	8c	8F
2cc	8a	8f	8F
.	8a	8f	8F
.	8g	8e	8G
.	8g	8e	8G
4b	8f	8d	8G#
.	8f	8d	8G#
=39	=39	=39	=39
8b	8f	8d	8A
8cc	8e	8c	8A
2cc	8e	8c	8A
.	8e	8c	8A
.	8e	4c	8A
.	8d	.	8B
8r	8c	4r	8A
8cc	8B-	.	8G
=40	=40	=40	=40
2ee-	8A	8r	8F#
.	8c	8A	8F#
.	8c	8A	8F#
.	8c	8A	8F#
4.dd	8B-	8d	8G
.	8B-	8B-	8G
.	8B-	8G	8G
8ee-	8B-	8G	8G
=41	=41	=41	=41
4dd	8A	8F#	8D
.	8f#	8A	8D
8.cc	8f#	8A	8D
.	8f#	8A	8D
16dd	.	.	.
4cc	8g	8G	8E-
.	8g	8G	8E-
8.b-	8g	8G	8D
.	8g	8G	8D
16cc	.	.	.
=42	=42	=42	=42
4b-	8g	8e	8C#
.	8g	8e	8C#
2a	8g	8e	8C#
.	8g	8e	8C#
.	8f	8d	8D
.	8a	8f	8D
4ff	8a	8f	8D
.	8dd	8a	8D
=43	=43	=43	=43
4ff	4dd	4a	4A
4ee	4cc#	4A	8AA
.	.	.	8A
4.r	4.r	8r	8G
.	.	8a	8F
.	.	8g	8E
8aa	8a	8f	8D
=44	=44	=44	=44
2.bb-	8g	8e	8C#
.	8g	8e	8C#
.	8g	8e	8C#
.	8g	8e	8C#
.	8e	8G	8C#
.	8e	8G	8C#
16aa	8e	8G	8C#
16gg	.	.	.
16ff	8e	8B-	8C#
16gg	.	.	.
=45	=45	=45	=45
4ff	8d	8A	4D
.	8f	8d	.
2r	4a	4f	8D
.	.	.	8d
.	4.r	8r	8c
.	.	8dd	8B-
8r	.	8cc	8A
8dd	8dd	8b-	8G
=46	=46	=46	=46
2.ee-	8cc	8a	8F#
.	8cc	8a	8F#
.	8cc	8a	8F#
.	8cc	8a	8F#
.	8a	8c	8F#
.	8a	8c	8F#
16dd	8a	8c	8F#
16cc	.	.	.
16b-	8a	8e-	8F#
16cc	.	.	.
=47	=47	=47	=47
4b-	8g	8d	4G
.	8b-	8g	.
2r	4dd	4b-	8GG
.	.	.	8G
.	4.r	8r	8F
.	.	8g	8E-
8r	.	8f	8D
8gg	8g	8e-	8C
=48	=48	=48	=48
2.aa-	8f	8d	8BB
.	8f	8d	8BB
.	8f	8d	8BB
.	8f	8d	8BB
.	8d	8F	8BB
.	8d	8F	8BB
16gg	8d	8F	8BB
16ff	.	.	.
16ee	8d	8A-	8BB
16ff	.	.	.
=49	=49	=49	=49
4ee	8c	8G	4C
.	8e	8c	.
2r	4g	4e	8C
.	.	.	8c
.	4.r	8r	8B-
.	.	8cc	8A
8r	.	8b-	8G
8cc	8cc	8a	8F
=50	=50	=50	=50
2.dd	8b-	8g	8E
.	8b-	8g	8E
.	8b-	8g	8E
.	8b-	8g	8E
.	8g	8B-	8E
.	8g	8B-	8E
16cc	8g	8B-	8E
16b-	.	.	.
16a	8g	8d	8E
16b-	.	.	.
=51	=51	=51	=51
8a	16f	8c	8E-
.	16f	.	.
4ff	16f	8c	8E-
.	16f	.	.
.	16f	8c	8E-
.	16f	.	.
4a	16f	8c	8E-
.	16f	.	.
.	16f	8d	8D
.	16f	.	.
4b-	16f	8d	8D
.	16f	.	.
.	16f	8d	8D
.	16f	.	.
8b	16f	8d	8D
.	16f	.	.
=52	=52	=52	=52
8b	16f	8A	8AA
.	16f	.	.
4cc	16f	8A	8AA
.	16f	.	.
.	16f	8A	8AA
.	16f	.	.
4cc#	16f	8A	8AA
.	16f	.	.
.	16f	8B-	8BB-
.	16f	.	.
4dd	16f	8B-	8BB-
.	16f	.	.
.	8f	8G	8BB
8f	8d	8G	8BB
=53	=53	=53	=53
4e	4c	8G	8C
.	.	8e	8c
16cc	16e	8c	8G
16b	16d	.	.
16cc	16e	8G	8E
16dd	16f	.	.
4cc	4e	4G	4C
4r	4r	4r	4r
=54	=54	=54	=54
4ff	4f	4f	4F
4aa	4a	4a	4A
4ccc	4cc	4cc	4c
4r	4r	4r	4r
=55	=55	=55	=55
8.cc	4g	4e	1r
16dd	.	.	.
8.b-	4f	4d	.
16cc	.	.	.
4a	4e	4c	.
4r	4r	4r	.
=56	=56	=56	=56
4b-	4B-	4B-	4BB-
4dd	4d	4d	4D
4ff	4f	4f	4F
4r	4r	4r	4r
=57	=57	=57	=57
8.a	4e	4c	1r
16b-	.	.	.
8.g	4d	4B-	.
16a	.	.	.
4f	4c	4A	.
8r	4r	4r	.
8cc	.	.	.
=58	=58	=58	=58
2aa	8r	8f	8F
.	16cc	8f	8F
.	16dd	.	.
.	8cc	8f	8F
.	8cc	8f	8F
4.gg	8r	8e	8E
.	16cc	8e	8E
.	16b	.	.
.	8cc	8e	8E
8aa	8cc	8e	8E
=59	=59	=59	=59
2gg	8r	8d	8D
.	8a	8d	8D
.	8b	8d	8D
.	8cc#	8d	8D
4ff	16dd	8d	8D
.	16ee	.	.
.	16ff	8d	8D
.	16ee	.	.
8r	8dd	8d	8D
8ff	8a	8d	8D
=60	=60	=60	=60
2ddd	8r	8b-	8B-
.	16ff	8b-	8B-
.	16ee	.	.
.	8ff	8b-	8B-
.	8ff	8b-	8B-
4.ccc	8r	8a	8A
.	16ff	8a	8A
.	16ee	.	.
.	8ff	8a	8A
8ddd	8ff	8a	8A
=61	=61	=61	=61
2ccc	8r	8g	8G
.	8dd	8g	8G
.	8ee	8g	8G
.	8ff#	8g	8G
4bb-	16gg	8g	8G
.	16aa	.	.
.	16bb-	8g	8G
.	16aa	.	.
8r	8gg	8g	8G
8b-	8b-	8g	8G
=62	=62	=62	=62
4.bb-	8g	8r	8E
.	16cc	8c	8E
.	16ee	.	.
.	8gg	8e	8E
8cc	8gg	8g	8E
8bb-	4gg	4cc	8E
16aa	.	.	8E
16gg	.	.	.
8bb-	4r	4c	8E
16aa	.	.	8E
16gg	.	.	.
=63	=63	=63	=63
4.aa	8f	8r	8F
.	16a	8c	8F
.	16cc	.	.
.	8ff	8f	8F
8cc	8ff	8a	8F
8aa	4ff	8cc	8F
16gg	.	16b-	8F
16ff	.	16a	.
8ff	4r	8a	8F
16ee	.	16g	8F
16dd	.	16f	.
=64	=64	=64	=64
8dd	4r	8f	8BB-
16cc	.	16e	8BB-
16b-	.	16d	.
8b-	8f	8d	8BB-
16a	16e	16c	8BB-
16g	16d	16B-	.
4f	4c	4A	8C
.	.	.	8C
4e	4B-	4G	8C
.	.	.	8C
=65	=65	=65	=65
4f	8A	8F	8F
.	8f	8A	8F
2r	8g	8B-	8E
.	8f	8A	8F
.	8e	8B-	8G
.	8f	8A	8F
8r	8dd	8b-	8E
8cc	8cc	8a	8F
=66	=66	=66	=66
4.bb-	8g	8r	8E
.	16cc	8c	8E
.	16ee	.	.
.	8gg	8e	8E
8cc	8gg	8g	8E
8bb-	4gg	4cc	8E
16aa	.	.	8E
16gg	.	.	.
8bb-	4r	4c	8E
16aa	.	.	8E
16gg	.	.	.
=67	=67	=67	=67
4.aa	8f	8r	8F
.	16a	8c	8F
.	16cc	.	.
.	8ff	8f	8F
8cc	8ff	8a	8F
8aa	4ff	8f	8D
16gg	.	8f	8D
16ff	.	.	.
8ff	4r	8f	8D
16ee	.	8f	8D
16dd	.	.	.
=68	=68	=68	=68
8dd	8f	4B-	8BB-
16cc	16e	.	8BB-
16b-	16d	.	.
8b-	8d	8f	8BB-
16a	16c	16e	8BB-
16g	16B-	16d	.
4f	4A	4c	8C
.	.	.	8C
4e	4G	4B-	8C
.	.	.	8C
=69	=69	=69	=69
4f	8A	4A	8F
.	16A	.	8F
.	16c	.	.
4aa	8f	8c	8F
.	16c	16A	8F
.	16f	16c	.
4.d	8a	8f	8F
.	16f	16d	8F
.	16a	16f	.
.	8dd	[4a	8F
8aa	16ff	.	8F
.	16dd	.	.
=70	=70	=70	=70
4c#	4gg	4a]	8E
.	.	.	8E
4.gg	4B-	4d	8D
.	.	.	8D
.	8A	4e	8C#
8ee	8cc#	.	8C#
8gg	8ee	8r	8AA
16ff	16dd	8a	8AA
16ee	16cc#	.	.
=71	=71	=71	=71
4ff	8dd	4a	8D
.	16ff	.	8D
.	16dd	.	.
4aa	8b	4f	8D
.	16a	.	8D
.	16b	.	.
4.c	8cc	4e	8C
.	16g	.	8C
.	16cc	.	.
.	8ee	4c	8C
8gg	16cc	.	8C
.	16ee	.	.
=72	=72	=72	=72
4B	8ff	8G	8D
.	8ee	4g	8C
4.ff	8dd	.	8BB
.	8cc	4g	8AA
.	8b	.	8GG
8dd	8b	8G	8GG
8ff	8dd	8g	8GG
16ee	16cc	8f	8GG
16dd	16b	.	.
=73	=73	=73	=73
4ee	8cc	4e	8C
.	16ee	.	8C
.	16cc	.	.
4gg	8a	4e-	8C
.	16g	.	8C
.	16a	.	.
4.B-	8b-	4d	8BB-
.	16f	.	8BB-
.	16b-	.	.
.	8dd	4B-	8BB-
8ff	16b-	.	8BB-
.	16dd	.	.
=74	=74	=74	=74
4A	4ee-	4F	8C
.	.	.	8C
4.ee-	4g	4B-	8BB-
.	.	.	8BB-
.	8f	8c	8AA
8cc	8a	4f	8A
8ee-	8cc	.	8F
16dd	16b-	8F	8F
16cc	16a	.	.
=75	=75	=75	=75
4dd	8b-	4F	8BB-
.	16dd	.	8BB-
.	16b-	.	.
4ff	8f	4d	8BB-
.	16b-	.	8BB-
.	16f	.	.
4d	8f	4B-	8BB-
.	16b-	.	8BB-
.	16f	.	.
4ff	8d	4b-	8BB-
.	16f	.	8BB-
.	16d	.	.
=76	=76	=76	=76
4B	8f	4r	8D-
.	8f	.	8D-
2aa-	8b	8f	8D-
.	8b	8f	8D-
.	8b	8f	8D-
.	8b	8f	8D-
16gg	8b	8f	8D-
16ff	.	.	.
16ee	8b	8f	8D-
16ff	.	.	.
=77	=77	=77	=77
4ee	4cc	4g	4C
8r	2.r	4e 4G 4C	4c
8cc	.	.	.
8c	.	2r	2r
8d	.	.	.
8d	.	.	.
8e	.	.	.
=78	=78	=78	=78
16e	4.r	1r	1r
16f	.	.	.
16e	.	.	.
16d	.	.	.
8c	.	.	.
8cc	8cc	.	.
8e	8c	.	.
8f	8d	.	.
8f	8d	.	.
8g	8e	.	.
=79	=79	=79	=79
16g	16e	1r	1r
16a	16f	.	.
16g	16e	.	.
16f	16d	.	.
8e	8c	.	.
8cc	8e	.	.
8g	8e	.	.
8a	8f	.	.
8a	8f	.	.
8b-	8g	.	.
=80	=80	=80	=80
16b-	16g	16e	8C
16b-	16g	16e	.
16b-	16g	16e	8C
16b-	16g	16e	.
16ee	16b-	16g	8C
16ee	16b-	16g	.
16ee	16b-	16g	8C
16ee	16b-	16g	.
16gg	16ee	16cc	8C
16gg	16ee	16cc	.
16gg	16ee	16cc	8C
16gg	16ee	16cc	.
16bb-	16gg	16e	8C
16bb-	16gg	16e	.
16bb-	16gg	16e	8C
16bb-	16gg	16e	.
=81	=81	=81	=81
4aa	4ff	4f	4F
2cc	4r	4r	4r
.	8f	8c	8AA
.	8f	8c	8AA
8b-	8f	8c	8AA
8a	8f	8c	8AA
=82	=82	=82	=82
8a	8f	8d	8BB-
8g	8f	8d	8BB-
2g	8f	8d	8BB-
.	8f	8d	8BB-
.	8f	8d	8BB-
.	8f	8d	8BB-
4a	8f	8e-	8C
.	8f	8e-	8C
=83	=83	=83	=83
8a	8f	8d	8D
8b-	8f	8d	8D
2b-	8f	8d	8D
.	8f	8d	8D
.	8f	8d	8D
.	8f	8d	8D
4cc	8f	8c	8AA
.	8f	8c	8AA
=84	=84	=84	=84
4.dd	8f	8B-	8BB-
.	8f	8B-	8BB-
.	8f	8B-	8BB-
8ee	8c	8G	8BB-
8ff	8c	8F	4AA
8cc	8a	8c	.
8b-	8g	8e	4r
8a	8f	8f	.
=85	=85	=85	=85
4.g	4f	8d	8BB-
.	.	8d	8BB-
.	2f	8d	8BB-
16a	.	8d	8BB-
16b-	.	.	.
4a	.	8c	8C
.	.	8c	8C
4g	4e	8c	8C
.	.	8c	8C
=86	=86	=86	=86
4f	4f	4c	4F
8r	8r	8r	4FF
8cc	8a	8c	.
8ff	8dd	8f	2r
8ee	8cc	8e	.
8dd	8b-	8d	.
8cc	8a	8c	.
=87	=87	=87	=87
8b-	8g	8B-	4r
8b-	8g	8B-	.
8r	8r	8r	4G
8bb-	8dd	8b-	.
8aa	8cc	8a	4c
8gg	8b-	8g	.
8ff	8a	8f	4C
8ee	8g	8e	.
=88	=88	=88	=88
8ff	8a	8f	4F
8ff	8a	8f	.
8r	8r	8r	4FF
8cc	8a	8c	.
8ff	8dd	8f	2r
8ee	8cc	8e	.
8dd	8b-	8d	.
8cc	8a	8c	.
=89	=89	=89	=89
8b-	8g	8B-	4r
8b-	8g	8B-	.
8r	8r	8r	4G
8bb-	8dd	8b-	.
8aa	8cc	8a	4c
8gg	8b-	8g	.
8ff	8a	8f	4C
8ee	8g	8e	.
=90	=90	=90	=90
4ff	4a	4f	4F
4aa 4cc 4f	4ff 4a 4f	4f	4F
4ff 4a 4f	4aa 4cc 4f	4F	4FF
4r	4r	4r	4r
==	==	==	==
*-	*-	*-	*-
!!!RWG1: This file contains only pitch and duration data.
!!!RWG2: Transposing instruments are not transposed.
!!!RWG3: Spines may have incompatible meters.
!!!RWG4: Durations of rests and tied notes may be interpreted.
!!!RWG: Key is interpreted using the Humdrum key tool.
!!!AFT: stage1
!!!END: 1997/04/15
!!format changes:
!!content changes:
!!public access: complete
!!!KEY: 3944188460
!!!EMD: Converted from MuseData to Humdrum Dec 16, 2000, by Andreas Kornstaedt using muse2kern.
